!!!OTL: Die Koenigskinder Elzeleyn lipstis elzeleyn.
!!!ARE: Europa, Mitteleuropa, Deutschland
!!!YOR: 1, S. 217
!!    1480 Handschrift
!!!SCT: Q0020G
!!!YEM: Copyright 1995, estate of Helmut Schaffrath.
**kern
*ICvox
*Ivox
*M6/4
*k[b-e-]
*g:
=1
{2g
4b-
2a
4g
=2
4.a
8b-
4cc
2dd}
{4dd
=3
2g
4a
4.cc
8b-
8a
8g
=4
2.fn
2r}
{4fn
=5
4.a
8b-
4cc
2b-
4a
=6
4.g
8a
4b-
2a}
{4g
=7
2fn
4d
4e
4.fn
8e
=8
2.g
2.r}
==
!!!AGN: Ballade, Liebe, Trennung, Tod
!! Die"Elslein"-Melodie wird in direkten Zusammenhang zur Balladengruppe
!!    gestellt.
!!!ONB: ESAC (Essen Associative Code) Database: BALLADE
!!!AMT: compound duple
!!!AIN: vox
!!!EED: Helmut Schaffrath
!!!EEV: 1.0
*-
